svg/300/rounded/fit_width-fill.svg

<svg xmlns="http://www.w3.org/2000/svg" width="48" height="48" viewBox="0 -960 960 960"><path d="M140.001-165.001v-629.998q0-10.625 7.24-17.812 7.24-7.188 17.942-7.188 10.703 0 17.76 7.188 7.058 7.187 7.058 17.812v629.998q0 10.625-7.24 17.812-7.24 7.188-17.942 7.188t-17.76-7.188q-7.058-7.187-7.058-17.812Zm629.998 0v-629.998q0-10.625 7.24-17.812 7.24-7.188 17.942-7.188t17.76 7.188q7.058 7.187 7.058 17.812v629.998q0 10.625-7.24 17.812-7.24 7.188-17.942 7.188-10.703 0-17.76-7.188-7.058-7.187-7.058-17.812ZM479.818-455q-10.702 0-17.76-7.24Q455-469.48 455-480.182t7.24-17.76Q469.48-505 480.182-505t17.76 7.24Q505-490.52 505-479.818t-7.24 17.76Q490.52-455 479.818-455Zm-157.301 0q-11.093 0-17.958-7.24-6.866-7.24-6.866-17.942t7.041-17.76Q311.775-505 322.676-505t17.959 7.24q7.058 7.24 7.058 17.942t-7.238 17.76Q333.217-455 322.517-455Zm314.999 0q-11.093 0-17.959-7.24-6.865-7.24-6.865-17.942t7.041-17.76Q626.774-505 637.675-505t17.959 7.24q7.057 7.24 7.057 17.942t-7.237 17.76Q648.216-455 637.516-455Z"/></svg>

<svg xmlns="http://www.w3.org/2000/svg" width="48" height="48" viewBox="0 -960 960 960"><path d="M140-165v-630q0-10.62 7.24-17.81 7.24-7.19 17.94-7.19 10.71 0 17.76 7.19Q190-805.62 190-795v630q0 10.62-7.24 17.81-7.24 7.19-17.94 7.19-10.7 0-17.76-7.19Q140-154.38 140-165Zm630 0v-630q0-10.62 7.24-17.81 7.24-7.19 17.94-7.19 10.7 0 17.76 7.19Q820-805.62 820-795v630q0 10.62-7.24 17.81-7.24 7.19-17.94 7.19-10.71 0-17.76-7.19Q770-154.38 770-165ZM479.82-455q-10.7 0-17.76-7.24-7.06-7.24-7.06-17.94 0-10.7 7.24-17.76 7.24-7.06 17.94-7.06 10.7 0 17.76 7.24 7.06 7.24 7.06 17.94 0 10.7-7.24 17.76-7.24 7.06-17.94 7.06Zm-157.3 0q-11.1 0-17.96-7.24-6.87-7.24-6.87-17.94 0-10.7 7.04-17.76 7.04-7.06 17.95-7.06 10.9 0 17.95 7.24 7.06 7.24 7.06 17.94 0 10.7-7.24 17.76-7.23 7.06-17.93 7.06Zm315 0q-11.1 0-17.96-7.24-6.87-7.24-6.87-17.94 0-10.7 7.04-17.76 7.04-7.06 17.94-7.06 10.91 0 17.96 7.24 7.06 7.24 7.06 17.94 0 10.7-7.24 17.76-7.23 7.06-17.93 7.06Z"/></svg>
